svgs/thin/sheep.svg

<svg xmlns="http://www.w3.org/2000/svg" viewBox="0 0 640 512"><!--! Font Awesome Pro 6.4.2 by @fontawesome - https://fontawesome.com License - https://fontawesome.com/license (Commercial License) Copyright 2023 Fonticons, Inc. --><path d="M560 132c0-46.4-37.6-84-84-84s-84 37.6-84 84v76c0 44.2 35.8 80 80 80h8c44.2 0 80-35.8 80-80V132zM384.6 91.4C400.2 56.4 435.2 32 476 32s75.8 24.4 91.4 59.4L618.3 126c8.6 5.8 13.7 15.5 13.7 25.9c0 24-26 39.1-46.8 27.2l-9.2-5.3V208c0 53-43 96-96 96h-8c-53 0-96-43-96-96V173.8l-9.2 5.3C346 191 320 175.9 320 151.9c0-10.4 5.1-20 13.7-25.9l50.9-34.7zM576 132v23.4l17.1 9.8c10.2 5.8 22.9-1.5 22.9-13.3c0-5.1-2.5-9.8-6.7-12.6l-34.6-23.6c.9 5.3 1.3 10.8 1.3 16.3zM377.3 115.7l-34.6 23.6c-4.2 2.8-6.7 7.6-6.7 12.6c0 11.7 12.7 19.1 22.9 13.3l17.1-9.8V132c0-5.6 .5-11 1.3-16.3zM448 144a16 16 0 1 1 0 32 16 16 0 1 1 0-32zm48 16a16 16 0 1 1 32 0 16 16 0 1 1 -32 0zM416 360c18.3 0 34.1-10.2 42.2-25.2c5.6 .8 11.3 1.2 17.1 1.2c-8.7 21.6-28.9 37.3-52.9 39.7L397.6 481.2c-4.3 18.1-20.4 30.8-38.9 30.8H344c-22.1 0-40-17.9-40-40V448c0-4.4 3.6-8 8-8s8 3.6 8 8v24c0 13.3 10.7 24 24 24h14.7c11.1 0 20.8-7.7 23.4-18.5l23.4-99.4C397.6 404.6 373.1 424 344 424c-15 0-28.9-5.2-39.8-13.9c-11.7 13.4-29 21.9-48.2 21.9s-36.5-8.5-48.2-21.9C196.9 418.8 183 424 168 424c-29.1 0-53.6-19.4-61.4-45.9L130 477.5c2.6 10.8 12.2 18.5 23.4 18.5H168c13.3 0 24-10.7 24-24V448c0-4.4 3.6-8 8-8s8 3.6 8 8v24c0 22.1-17.9 40-40 40H153.3c-18.6 0-34.7-12.8-38.9-30.8L89.6 375.7C57.3 372.5 32 345.2 32 312c0-5.3 .7-10.5 1.9-15.5C13.7 285.7 0 264.5 0 240s13.7-45.7 33.9-56.5c-1.2-5-1.9-10.2-1.9-15.5c0-35.3 28.7-64 64-64c3.3 0 6.6 .3 9.8 .8C112.7 76.8 137.9 56 168 56c15 0 28.9 5.2 39.8 13.9C219.5 56.5 236.8 48 256 48s36.5 8.5 48.2 21.9C315.1 61.2 329 56 344 56c7.6 0 14.8 1.3 21.5 3.7c-3 4.5-5.7 9.3-8.1 14.2c-4.3-1.2-8.8-1.9-13.4-1.9c-11.3 0-21.7 3.9-29.8 10.4c-6.7 5.3-16.4 4.4-22-2C283.3 70.3 270.4 64 256 64s-27.3 6.3-36.1 16.4c-5.6 6.4-15.3 7.3-22 2C189.7 75.9 179.3 72 168 72c-22.5 0-41.5 15.6-46.6 36.5c-2 8.1-9.8 13.3-18 12c-2.4-.4-4.9-.6-7.4-.6c-26.5 0-48 21.5-48 48c0 4 .5 7.9 1.4 11.6c1.8 7.1-1.5 14.5-8 18C26.3 205.7 16 221.7 16 240s10.3 34.3 25.4 42.4c6.5 3.5 9.8 10.9 8 18C48.5 304.1 48 308 48 312c0 26.5 21.5 48 48 48c2.5 0 5-.2 7.4-.6c8.2-1.3 16 4 18 12c5.1 21 24.1 36.6 46.6 36.6c11.3 0 21.7-3.9 29.8-10.4c6.7-5.3 16.4-4.4 22 2c8.8 10.1 21.7 16.4 36.1 16.4s27.3-6.3 36.1-16.4c5.6-6.4 15.3-7.3 22-2c8.2 6.5 18.5 10.4 29.8 10.4c22.5 0 41.5-15.6 46.6-36.6c2-8.1 9.8-13.3 18-12c2.4 .4 4.9 .6 7.4 .6z"/></svg>

<svg xmlns="http://www.w3.org/2000/svg" viewBox="0 0 640 512"><!--! Font Awesome Pro 6.1.1 by @fontawesome - https://fontawesome.com License - https://fontawesome.com/license (Commercial License) Copyright 2022 Fonticons, Inc. --><path d="M432 160C432 151.2 439.2 144 448 144C456.8 144 464 151.2 464 160C464 168.8 456.8 176 448 176C439.2 176 432 168.8 432 160zM528 160C528 168.8 520.8 176 512 176C503.2 176 496 168.8 496 160C496 151.2 503.2 144 512 144C520.8 144 528 151.2 528 160zM384.6 91.36C400.2 56.38 435.2 32 476 32C516.8 32 551.8 56.38 567.4 91.36L618.3 126C626.9 131.8 632 141.5 632 151.9C632 175.9 606 190.1 585.2 179L576 173.8V208C576 261 533 304 480 304H472C418.1 304 376 261 376 208V173.8L366.8 179C345.1 190.1 320 175.9 320 151.9C320 141.5 325.1 131.8 333.7 126L384.6 91.36zM476 48C429.6 48 392 85.61 392 132V208C392 252.2 427.8 288 472 288H480C524.2 288 560 252.2 560 208V132C560 85.61 522.4 48 476 48zM576 155.4L593.1 165.1C603.3 170.1 616 163.6 616 151.9C616 146.8 613.5 142.1 609.3 139.2L574.7 115.7C575.5 120.1 576 126.4 576 131.1V155.4zM377.3 115.7L342.7 139.2C338.5 142.1 336 146.8 336 151.9C336 163.6 348.7 170.1 358.9 165.1L376 155.4V132C376 126.4 376.5 120.1 377.3 115.7V115.7zM416 360C434.3 360 450.1 349.8 458.2 334.8C463.8 335.6 469.5 335.1 475.3 336C466.6 357.6 446.5 373.3 422.4 375.7L397.6 481.2C393.3 499.2 377.2 512 358.7 512H344C321.9 512 304 494.1 304 472V448C304 443.6 307.6 440 312 440C316.4 440 320 443.6 320 448V472C320 485.3 330.7 496 344 496H358.7C369.8 496 379.5 488.3 382 477.5L405.4 378.1C397.6 404.6 373.1 424 344 424C328.1 424 315.1 418.8 304.2 410.1C292.5 423.5 275.2 432 256 432C236.8 432 219.5 423.5 207.8 410.1C196.9 418.8 183 424 168 424C138.9 424 114.4 404.6 106.6 378.1L129.1 477.5C132.5 488.3 142.2 496 153.3 496H168C181.3 496 192 485.3 192 472V448C192 443.6 195.6 440 200 440C204.4 440 208 443.6 208 448V472C208 494.1 190.1 512 168 512H153.3C134.8 512 118.7 499.2 114.4 481.2L89.59 375.7C57.25 372.5 32 345.2 32 312C32 306.7 32.66 301.5 33.89 296.5C13.72 285.7 0 264.5 0 240C0 215.5 13.72 194.3 33.89 183.5C32.66 178.5 32 173.3 32 168C32 132.7 60.65 104 96 104C99.34 104 102.6 104.3 105.8 104.8C112.7 76.77 137.9 56 168 56C183 56 196.9 61.19 207.8 69.88C219.5 56.47 236.8 48 256 48C275.2 48 292.5 56.47 304.2 69.88C315.1 61.19 328.1 56 344 56C351.6 56 358.8 57.31 365.5 59.71C362.6 64.26 359.8 68.1 357.4 73.91C353.2 72.67 348.7 72 344 72C332.7 72 322.3 75.89 314.2 82.41C307.5 87.73 297.8 86.85 292.1 80.42C283.3 70.33 270.4 64 256 64C241.6 64 228.7 70.33 219.9 80.42C214.2 86.85 204.5 87.73 197.8 82.41C189.7 75.89 179.3 72 168 72C145.5 72 126.5 87.56 121.4 108.5C119.4 116.6 111.6 121.8 103.4 120.6C100.1 120.2 98.52 120 96 120C69.49 120 48 141.5 48 168C48 172 48.49 175.9 49.42 179.6C51.19 186.8 47.9 194.2 41.43 197.6C26.26 205.7 16 221.7 16 240C16 258.3 26.26 274.3 41.43 282.4C47.9 285.8 51.19 293.2 49.42 300.4C48.5 304.1 48 307.1 48 312C48 338.5 69.49 360 96 360C98.52 360 100.1 359.8 103.4 359.4C111.6 358.2 119.4 363.4 121.4 371.4C126.5 392.4 145.5 408 168 408C179.3 408 189.7 404.1 197.8 397.6C204.5 392.3 214.2 393.1 219.9 399.6C228.7 409.7 241.6 416 256 416C270.4 416 283.3 409.7 292.1 399.6C297.8 393.1 307.5 392.3 314.2 397.6C322.3 404.1 332.7 408 344 408C366.5 408 385.5 392.4 390.6 371.5C392.6 363.4 400.4 358.2 408.6 359.4C411 359.8 413.5 360 416 360V360z"/></svg>
